X:27051
N: Round Reel of Eight
N: 88R set 4C (RSCDS Book 27 - 5 x 16 + 8)
T: Mrs. Anderson's Reel
C: by Robert Mackintosh
C: arr. T. Traub 6-26-2007
L: 1/8
M: 4/4
R: Reel
%--------------------
K: G
|: d|"G"g2 dc BGdB|"C"cBAG "D"FDDf|"G"g2 dg BGdB|"D"cedc "G"BG G :|
c|"G"BGdB "Am"cAec|"G"BgdB "D"cAAc|"G"BGdB "Am"cAec|"D"BdAc "G"BGGc|
"G"BGdB "Am"cAec|"G"BgdB "D"cAAc|"G"Bdgb "C"ceag|"D"fdef "G"gG G |]
